X:1
T:Partition sans titre
C:Compositeur / Arrangeur
L:1/8
M:4/4
I:linebreak $
K:D
V:1 treble nm="Violon" snm="Vln."
V:1
"G" DEGA BdBA | G2 g2 G3 B |"D" ABAF DFAF |"G" GABc ddBd |"G" DEGA BdBA | G2 g2 G3 B | %6
"D" ABAF DFAF |1"G" GBAF G3 F :|2"G" GBAF G3 f |:"C" edef gage |"G" dedB GABG |"D" ABAF DFAF | %12
"G" GABc ddBd |"C" edef gage |"G" dedB GABG |"D" ABAF DFAF |1"G" GBAF G3 f :|2"G" GBAF G3 F |] %18
